icons/fill-new-office-education-student-hat-graduate.svg

<svg xmlns="http://www.w3.org/2000/svg" width="32px" height="32px" viewBox="0 0 32 32" version="1.1">
    <title>fill-new-office-education-student-hat-graduate</title>
    <g id="fill-new-office-education-student-hat-graduate" stroke-width="1" fill-rule="evenodd">
        <path d="M26.9992919,15.6563544 L27,22.9063669 C27,23.2723111 26.8001129,23.6090293 26.4788521,23.7842625 L16.4587139,29.2497924 C16.1713374,29.4065433 15.8254362,29.4127181 15.5326481,29.2663241 L7.5527864,25.2763932 C7.21400238,25.1070012 7,24.7607381 7,24.381966 L6.99929191,16.7183544 L15.5308448,21.2507613 C15.7875318,21.3871263 16.0888093,21.4041719 16.356644,21.3018982 L16.4691552,21.2507613 L26.9992919,15.6563544 Z M2.99929191,14.5933544 L4.99929191,15.6553544 L5,24 C5,24.5522847 4.55228475,25 4,25 C3.44771525,25 3,24.5522847 3,24 L2.99929191,14.5933544 Z M16.4691552,2.74923871 L30.3376645,10.1168843 C30.8253959,10.3759916 31.0107323,10.9814239 30.751625,11.4691552 C30.6580228,11.6453476 30.5138569,11.7895135 30.3376645,11.8831157 L16.4691552,19.2507613 C16.1757986,19.406607 15.8242014,19.406607 15.5308448,19.2507613 L1.66233547,11.8831157 C1.17460413,11.6240084 0.989267702,11.0185761 1.24837498,10.5308448 C1.34197716,10.3546524 1.48614314,10.2104865 1.66233547,10.1168843 L15.5308448,2.74923871 C15.8242014,2.59339301 16.1757986,2.59339301 16.4691552,2.74923871 Z" id="&#24418;&#29366;" />
    </g>
</svg>

<svg xmlns="http://www.w3.org/2000/svg" viewBox="0 0 32 32"><path fill="currentColor" d="M27 15.656v7.25a1 1 0 0 1-.521.878l-10.02 5.466a1 1 0 0 1-.926.016l-7.98-3.99A1 1 0 0 1 7 24.382v-7.664l8.53 4.533a1 1 0 0 0 .827.05l.112-.05zM3 14.593l2 1.062V24a1 1 0 0 1-2 0zM16.47 2.75l13.868 7.368a1 1 0 0 1 0 1.766l-13.869 7.368a1 1 0 0 1-.938 0L1.662 11.883a1 1 0 0 1 0-1.766l13.869-7.368a1 1 0 0 1 .938 0"/></svg>
